X:1062
L:1/8
M:2/4
K:G
 z | GDDG | FEEA | FDEF | GB d2 | GDDG | FEEA | FDEF | G2 z :: G | F>GAF | G>ABG | A>BcA | Bc d2 | 
 GDDG | FEEA | FDEF | G2 z :: D | GGBB | d3 B | AAdd | B/c/B/A/ GD | GGBB | d3 B | AAdF | G2 z :|

